icon-themes/breeze_svg/svx/res/marker-anchor-pressed.svg

<svg height="22" viewBox="0 0 22 22" width="22" xmlns="http://www.w3.org/2000/svg"><path d="m0 0v22h22v-22zm11 3c1.104569 0 2 .89543 2 2 0 .93198-.637301 1.715537-1.5 1.9375v2.0625h2.5v1h-2.5v7.96875c2.539039-.16277 4.748393-1.51216 6.09375-3.5l-.1875-.09375-.90625-.5.5-.875s3.000014 1.62437 3 1.625l-.5.875-1.03125-.5625c-1.604845 2.43564-4.335597 4.0625-7.46875 4.0625s-5.864588-1.62686-7.46875-4.0625l-1.03125.5625-.5-.875s3.000019-1.624983 3-1.625l.5.875-.90625.5-.1875.09375c1.345357 1.98784 3.55471 3.33723 6.09375 3.5v-7.96875h-2.5v-1h2.5v-2.0625c-.862699-.221963-1.5-1.00552-1.5-1.9375 0-1.10457.895431-2 2-2zm0 1c-.552285 0-1 .447715-1 1s.447715 1 1 1 1-.447715 1-1-.447715-1-1-1z" fill="#4d4d4d" opacity=".8"/><path d="m11.000001 3.00002c-1.1045691 0-2.0000001.8954-2.0000001 2 0 .932.637301 1.7155 1.5000001 1.9375v2.0625h-2.5000001v1h2.5000001v7.9687c-2.5390401-.1627-4.7483931-1.5121-6.0937501-3.5l.1875-.094.90625-.5-.5-.875c.000019 0-3 1.625-3 1.625l.5.875 1.03125-.5625c1.604162 2.4357 4.335597 4.0625 7.4687501 4.0625 3.133153 0 5.863905-1.6268 7.46875-4.0625l1.031249.5625.5-.875c.000014-.0006-2.999999-1.625-2.999999-1.625l-.5.875.90625.5.1875.094c-1.345357 1.9879-3.554711 3.3373-6.09375 3.5v-7.9687h2.5v-1h-2.5v-2.0625c.862699-.222 1.5-1.0055 1.5-1.9375 0-1.1046-.895431-2-2-2zm0 1c.552285 0 1 .4477 1 1s-.447715 1-1 1-1-.4477-1-1 .447715-1 1-1z" fill="#fff" fill-rule="evenodd" opacity=".8"/></svg>

<?xml version="1.0" encoding="UTF-8" standalone="no"?>
<svg
   xmlns:dc="http://purl.org/dc/elements/1.1/"
   xmlns:cc="http://creativecommons.org/ns#"
   xmlns:rdf="http://www.w3.org/1999/02/22-rdf-syntax-ns#"
   xmlns:svg="http://www.w3.org/2000/svg"
   xmlns="http://www.w3.org/2000/svg"
   xmlns:sodipodi="http://sodipodi.sourceforge.net/DTD/sodipodi-0.dtd"
   xmlns:inkscape="http://www.inkscape.org/namespaces/inkscape"
   height="22"
   viewBox="0 0 22 22"
   width="22"
   version="1.1"
   id="svg8"
   sodipodi:docname="marker-anchor-pressed.svg"
   inkscape:version="0.92.3 (2405546, 2018-03-11)">
  <metadata
     id="metadata14">
    <rdf:RDF>
      <cc:Work
         rdf:about="">
        <dc:format>image/svg+xml</dc:format>
        <dc:type
           rdf:resource="http://purl.org/dc/dcmitype/StillImage" />
      </cc:Work>
    </rdf:RDF>
  </metadata>
  <defs
     id="defs12" />
  <sodipodi:namedview
     pagecolor="#ffffff"
     bordercolor="#666666"
     borderopacity="1"
     objecttolerance="10"
     gridtolerance="10"
     guidetolerance="10"
     inkscape:pageopacity="0"
     inkscape:pageshadow="2"
     inkscape:window-width="1360"
     inkscape:window-height="711"
     id="namedview10"
     showgrid="false"
     inkscape:zoom="10.727273"
     inkscape:cx="11"
     inkscape:cy="11"
     inkscape:window-x="0"
     inkscape:window-y="30"
     inkscape:window-maximized="1"
     inkscape:current-layer="svg8" />
  <path
     style="opacity:0.8;fill:#4d4d4d"
     inkscape:connector-curvature="0"
     id="path2"
     d="M 0,0 V 22 H 22 V 0 Z m 11,3 c 1.104569,0 2,0.89543 2,2 0,0.93198 -0.637301,1.715537 -1.5,1.9375 V 9 H 14 v 1 h -2.5 v 7.96875 c 2.539039,-0.16277 4.748393,-1.51216 6.09375,-3.5 L 17.40625,14.375 16.5,13.875 17,13 c 0,0 3.000014,1.62437 3,1.625 L 19.5,15.5 18.46875,14.9375 C 16.863905,17.37314 14.133153,19 11,19 7.866847,19 5.135412,17.37314 3.53125,14.9375 L 2.5,15.5 2,14.625 c 0,0 3.000019,-1.624983 3,-1.625 l 0.5,0.875 -0.90625,0.5 -0.1875,0.09375 c 1.345357,1.98784 3.55471,3.33723 6.09375,3.5 V 10 H 8 V 9 h 2.5 V 6.9375 C 9.637301,6.715537 9,5.93198 9,5 9,3.89543 9.895431,3 11,3 Z m 0,1 c -0.552285,0 -1,0.447715 -1,1 0,0.552285 0.447715,1 1,1 0.552285,0 1,-0.447715 1,-1 0,-0.552285 -0.447715,-1 -1,-1 z" />
  <path
     style="fill:#ffffff;fill-rule:evenodd;opacity:0.8"
     inkscape:connector-curvature="0"
     id="path4"
     d="m 11.000001,3.00002 c -1.1045691,0 -2.0000001,0.8954 -2.0000001,2 0,0.932 0.637301,1.7155 1.5000001,1.9375 v 2.0625 H 8.0000009 v 1 h 2.5000001 v 7.9687 c -2.5390401,-0.1627 -4.7483931,-1.5121 -6.0937501,-3.5 l 0.1875,-0.094 0.90625,-0.5 -0.5,-0.875 c 1.9e-5,0 -3,1.625 -3,1.625 l 0.5,0.875 1.03125,-0.5625 c 1.604162,2.4357 4.335597,4.0625 7.4687501,4.0625 3.133153,0 5.863905,-1.6268 7.46875,-4.0625 L 19.5,15.49972 20,14.62472 c 1.4e-5,-6e-4 -2.999999,-1.625 -2.999999,-1.625 l -0.5,0.875 0.90625,0.5 0.1875,0.094 c -1.345357,1.9879 -3.554711,3.3373 -6.09375,3.5 v -7.9687 h 2.5 v -1 h -2.5 v -2.0625 c 0.862699,-0.222 1.5,-1.0055 1.5,-1.9375 0,-1.1046 -0.895431,-2 -2,-2 z m 0,1 c 0.552285,0 1,0.4477 1,1 0,0.5523 -0.447715,1 -1,1 -0.552285,0 -1,-0.4477 -1,-1 0,-0.5523 0.447715,-1 1,-1 z" />
</svg>
